X: 1
T: The Humours Of Tulla
R: reel
M: 4/4
L: 1/8
K: Gmaj
|: G2DG EGDE | G2BG AGEF | G2DG EGDG | (3EFG AB c2BA :|
|: dBAB GB~B2 | dB~B2 c2Bc | dBAB GBAB | (3EFG AB c2Bc :|


Tune 141	Setting 5265

